X: 3
T: Patsy Touhey's
R: reel
M: 4/4
L: 1/8
K: Dmaj
BE (3EDE BAFE|D2 (3FED ADFD|BE (3EDE BAFA|(3B^cd eg fded|BE (3EDE BAFE|D2 (3FED ADFD|BE (3EDE BAFA|(3B^cd eg fde2||e2 (3gfe bege|defg agfg|e2 (3gfe 'bege|defa geed|e2 (3gfe Bege|defg ae (3fga|'bgaf gefd|(3B^cd eg fe e2||


Tune 1087	Setting 1087

